src/assets/images/icons/svg/cycle.svg

<svg width="64" height="64" viewBox="0 0 64 64" fill="none" xmlns="http://www.w3.org/2000/svg">
<path d="M9.90763 31.7766C9.90763 36.2415 11.1079 40.2884 13.5083 43.9173C15.9087 47.5462 19.1307 50.2284 23.1743 51.964C23.7503 52.2497 24.1579 52.6828 24.397 53.2633C24.6361 53.8433 24.6063 54.4044 24.3076 54.9466C23.9201 55.5435 23.3923 55.9251 22.7243 56.0913C22.0563 56.2575 21.3952 56.1806 20.741 55.8606C16.001 53.706 12.2534 50.4602 9.4983 46.1233C6.74319 41.786 5.36563 37.0037 5.36563 31.7766C5.36563 30.4291 5.46608 29.0755 5.66697 27.716C5.86786 26.3564 6.19675 25.0251 6.65363 23.722L4.14697 25.1593C3.63675 25.4473 3.11808 25.4986 2.59097 25.3133C2.06386 25.1275 1.6563 24.7742 1.3683 24.2533C1.05941 23.7008 0.979413 23.1235 1.1283 22.5213C1.27763 21.9186 1.62875 21.4626 2.18163 21.1533L10.2643 16.4713C10.8167 16.1726 11.397 16.1006 12.005 16.2553C12.6125 16.4095 13.0656 16.7577 13.3643 17.3L18.015 25.316C18.3239 25.8684 18.4012 26.4486 18.247 27.0566C18.0923 27.6642 17.7385 28.1173 17.1856 28.416C16.6332 28.7253 16.0292 28.8106 15.3736 28.672C14.7181 28.5333 14.2887 28.1715 14.0856 27.5866L11.6336 23.422C11.075 24.7611 10.6476 26.1255 10.3516 27.5153C10.0556 28.9051 9.90763 30.3255 9.90763 31.7766ZM32.0003 9.69996C29.6372 9.69996 27.3605 10.0733 25.1703 10.82C22.9805 11.5671 20.9547 12.66 19.093 14.0986C18.5192 14.4648 17.9225 14.6128 17.303 14.5426C16.6839 14.4728 16.225 14.1615 15.9263 13.6086C15.5832 13.0117 15.4916 12.3675 15.6516 11.676C15.8116 10.9848 16.1732 10.4562 16.7363 10.09C18.9625 8.49662 21.3701 7.27618 23.959 6.42863C26.5479 5.58151 29.2283 5.15796 32.0003 5.15796C35.7714 5.15796 39.353 5.91751 42.745 7.43663C46.1374 8.95618 49.0896 11.1073 51.6016 13.89V10.9986C51.6016 10.3888 51.8225 9.90574 52.2643 9.54929C52.7056 9.19285 53.2419 9.01462 53.873 9.01462C54.525 9.01462 55.0665 9.22996 55.4976 9.66062C55.9283 10.0917 56.1436 10.6333 56.1436 11.2853V20.6186C56.1436 21.2711 55.9283 21.8126 55.4976 22.2433C55.0665 22.6744 54.525 22.89 53.873 22.89H44.5396C43.8872 22.89 43.3456 22.6744 42.915 22.2433C42.4839 21.8126 42.2683 21.2711 42.2683 20.6186C42.2683 19.9666 42.4839 19.4251 42.915 18.994C43.3456 18.5633 43.8872 18.348 44.5396 18.348H49.409C47.3392 15.6271 44.7783 13.5055 41.7263 11.9833C38.6743 10.4611 35.4323 9.69996 32.0003 9.69996ZM48.593 46.342C50.6792 43.9997 52.1685 41.3484 53.061 38.388C53.9539 35.4271 54.1772 32.4073 53.731 29.3286C53.695 28.6873 53.8703 28.1204 54.257 27.628C54.6432 27.136 55.1456 26.89 55.7643 26.89C56.4607 26.89 57.0552 27.1604 57.5476 27.7013C58.0396 28.2426 58.3143 28.8784 58.3716 29.6086C58.6739 33.0384 58.3547 36.3657 57.4143 39.5906C56.4734 42.8151 54.9281 45.7635 52.7783 48.436C50.8761 50.8151 48.6652 52.7935 46.1456 54.3713C43.6265 55.9491 40.8876 57.0648 37.929 57.7186L40.335 59.122C40.8452 59.4095 41.1399 59.8466 41.219 60.4333C41.2985 61.02 41.189 61.5788 40.8903 62.11C40.581 62.6628 40.1336 63.0028 39.5483 63.13C38.9625 63.2566 38.3934 63.1708 37.841 62.8726L29.7236 58.206C29.1707 57.8966 28.8196 57.4382 28.6703 56.8306C28.5214 56.2226 28.5961 55.6424 28.8943 55.09L33.561 47.09C33.8596 46.5477 34.3154 46.1993 34.9283 46.0446C35.5416 45.8904 36.1245 45.9624 36.677 46.2606C37.2192 46.57 37.5565 47.0146 37.689 47.5946C37.821 48.1751 37.7379 48.7362 37.4396 49.278L35.019 53.5953C37.6599 53.2757 40.145 52.4906 42.4743 51.24C44.8036 49.9893 46.8432 48.3566 48.593 46.342Z" fill="black"/>
</svg>

<svg xmlns="http://www.w3.org/2000/svg" width="64" height="64" fill="none"><path fill="#000" d="M9.908 31.777c0 4.465 1.2 8.511 3.6 12.14 2.4 3.63 5.623 6.311 9.666 8.047.576.286.984.719 1.223 1.3.24.58.21 1.14-.09 1.683-.387.596-.915.978-1.583 1.144-.668.166-1.329.09-1.983-.23-4.74-2.155-8.488-5.4-11.243-9.738-2.755-4.337-4.132-9.12-4.132-14.346 0-1.348.1-2.701.301-4.061.2-1.36.53-2.69.987-3.994l-2.507 1.437c-.51.288-1.029.34-1.556.154-.527-.185-.935-.539-1.223-1.06a2.3 2.3 0 0 1-.24-1.732c.15-.602.5-1.058 1.054-1.368l8.082-4.682a2.33 2.33 0 0 1 1.741-.216c.607.155 1.06.503 1.36 1.045l4.65 8.016c.309.552.386 1.133.232 1.74a2.062 2.062 0 0 1-1.061 1.36c-.553.31-1.157.395-1.812.256-.656-.139-1.085-.5-1.288-1.085l-2.452-4.165a23.127 23.127 0 0 0-1.282 4.093 20.4 20.4 0 0 0-.444 4.262ZM32 9.7c-2.363 0-4.64.373-6.83 1.12a20.937 20.937 0 0 0-6.077 3.279c-.574.366-1.17.514-1.79.444-.62-.07-1.078-.381-1.377-.934-.343-.597-.434-1.242-.274-1.933.16-.691.521-1.22 1.084-1.586a26.514 26.514 0 0 1 7.223-3.661A25.693 25.693 0 0 1 32 5.158c3.771 0 7.353.76 10.745 2.279a26.292 26.292 0 0 1 8.857 6.453v-2.891c0-.61.22-1.093.662-1.45.442-.356.978-.534 1.609-.534.652 0 1.194.215 1.625.646.43.43.646.972.646 1.624v9.334c0 .652-.216 1.194-.646 1.624-.431.431-.973.647-1.625.647H44.54c-.653 0-1.194-.216-1.625-.647-.431-.43-.647-.972-.647-1.624 0-.652.216-1.194.647-1.625.43-.43.972-.646 1.625-.646h4.869a21.7 21.7 0 0 0-7.683-6.365A21.502 21.502 0 0 0 32 9.7Zm16.593 36.642c2.086-2.342 3.575-4.994 4.468-7.954.893-2.96 1.116-5.98.67-9.06a2.442 2.442 0 0 1 .526-1.7c.386-.492.889-.738 1.507-.738.697 0 1.291.27 1.784.811.492.542.766 1.177.824 1.908.302 3.43-.017 6.757-.958 9.982-.94 3.224-2.486 6.172-4.636 8.845a26.364 26.364 0 0 1-6.632 5.935 25.877 25.877 0 0 1-8.217 3.348l2.406 1.403c.51.288.805.725.884 1.311a2.62 2.62 0 0 1-.329 1.677c-.309.553-.756.893-1.342 1.02-.586.127-1.155.04-1.707-.257l-8.117-4.667a2.088 2.088 0 0 1-1.054-1.375 2.363 2.363 0 0 1 .224-1.741l4.667-8c.299-.542.754-.89 1.367-1.045a2.353 2.353 0 0 1 1.749.216c.542.309.88.754 1.012 1.334.132.58.049 1.141-.25 1.683l-2.42 4.317a20.942 20.942 0 0 0 7.455-2.355 21.542 21.542 0 0 0 6.119-4.898Z"/></svg>
